icons/fill-new-office-doc-file-sketch.svg

<svg xmlns="http://www.w3.org/2000/svg" width="32px" height="32px" viewBox="0 0 32 32" version="1.1">
    <title>fill-new-office-doc-file-sketch</title>
    <g id="fill-new-office-doc-file-sketch" stroke-width="1" fill-rule="evenodd">
        <path d="M28,25 L28,29 C28,29.5522847 27.5522847,30 27,30 L5,30 C4.44771525,30 4,29.5522847 4,29 L4,25 L28,25 Z M29,10 C29.5522847,10 30,10.4477153 30,11 L30,22 C30,22.5522847 29.5522847,23 29,23 L3,23 C2.44771525,23 2,22.5522847 2,22 L2,11 C2,10.4477153 2.44771525,10 3,10 L29,10 Z M11.5,12.5 L6.6,12.5 C5.99248678,12.5 5.5,12.9924868 5.5,13.6 L5.5,16.4 L5.50645465,16.5198571 C5.56617613,17.0709893 6.03298766,17.5 6.6,17.5 L9.5,17.5 L9.5,18.5 L5.5,18.5 L5.5,20.5 L10.4,20.5 C11.0075132,20.5 11.5,20.0075132 11.5,19.4 L11.5,16.6 L11.4935453,16.4801429 C11.4338239,15.9290107 10.9670123,15.5 10.4,15.5 L7.5,15.5 L7.5,14.5 L11.5,14.5 L11.5,12.5 Z M19.481,12.499305 L16.92,12.499305 L15,14.899305 L15,12.5 L13,12.5 L13,20.5 L15,20.5 L15,18.100305 L16.919,20.499305 L19.479,20.499305 L16.28,16.5 L19.481,12.499305 Z M26.5,12.5 L20.5,12.5 L20.5,20.5 L26.5,20.5 L26.5,18.5 L22.5,18.5 L22.5,17.5 L26,17.5 L26,15.5 L22.5,15.5 L22.5,14.5 L26.5,14.5 L26.5,12.5 Z M20.0857864,2 C20.3510029,2 20.6053568,2.10535684 20.7928932,2.29289322 L26.5,8 L4,8 L4,3 C4,2.48716416 4.38604019,2.06449284 4.88337887,2.00672773 L5,2 L20.0857864,2 Z" id="&#24418;&#29366;" />
    </g>
</svg>

<svg xmlns="http://www.w3.org/2000/svg" viewBox="0 0 32 32"><path fill="currentColor" d="M28 25v4a1 1 0 0 1-1 1H5a1 1 0 0 1-1-1v-4zm1-15a1 1 0 0 1 1 1v11a1 1 0 0 1-1 1H3a1 1 0 0 1-1-1V11a1 1 0 0 1 1-1zm-17.5 2.5H6.6a1.1 1.1 0 0 0-1.1 1.1v2.8l.006.12a1.1 1.1 0 0 0 1.094.98h2.9v1h-4v2h4.9a1.1 1.1 0 0 0 1.1-1.1v-2.8l-.006-.12a1.1 1.1 0 0 0-1.094-.98H7.5v-1h4zm7.981 0H16.92L15 14.9v-2.4h-2v8h2v-2.4l1.919 2.4h2.56l-3.199-4zm7.019 0h-6v8h6v-2h-4v-1H26v-2h-3.5v-1h4zM20.086 2a1 1 0 0 1 .707.293L26.5 8H4V3a1 1 0 0 1 .883-.993L5 2z"/></svg>
